**kern	**kern	**dynam
*part1	*part1	*part1
*staff2	*staff1	*
*I"Piano	*	*
*clefF4	*clefG2	*
*k[b-e-a-]	*k[b-e-a-]	*
=1	=1	=1
*tremolo	*	*
64DD-XLLLL	4f 4a-	p <
64AA-	.	.
64DD-X	.	.
64AA-	.	.
64DD-X	.	.
64AA-	.	.
64DD-X	.	.
64AA-	.	.
64DD-X	.	.
64AA-	.	.
64DD-X	.	.
64AA-	.	.
64DD-X	.	.
64AA-	.	.
64DD-X	.	.
64AA-	.	.
64DD-X	(4dd-X 4ff	[[
64AA-	.	.
64DD-X	.	.
64AA-	.	.
64DD-X	.	.
64AA-	.	.
64DD-X	.	.
64AA-	.	.
64DD-X	.	.
64AA-	.	.
64DD-X	.	.
64AA-	.	.
64DD-X	.	.
64AA-	.	.
64DD-X	.	.
64AA-JJJJ	.	.
=	=	=
64DD-XLLLL	4b- 4dd-X	>
64AA-	.	.
64DD-X	.	.
64AA-	.	.
64DD-X	.	.
64AA-	.	.
64DD-X	.	.
64AA-	.	.
64DD-X	.	.
64AA-	.	.
64DD-X	.	.
64AA-	.	.
64DD-X	.	.
64AA-	.	.
64DD-X	.	.
64AA-	.	.
64DD-X	4g-X 4b-	]]
64AA-	.	.
64DD-X	.	.
64AA-	.	.
64DD-X	.	.
64AA-	.	.
64DD-X	.	.
64AA-	.	.
64DD-X	.	.
64AA-	.	.
64DD-X	.	.
64AA-	.	.
64DD-X	.	.
64AA-	.	.
64DD-X	.	.
64AA-JJJJ	.	.
=	=	=
64DD-XLLLL	4e-) 4g-X	<
64AA-	.	.
64DD-X	.	.
64AA-	.	.
64DD-X	.	.
64AA-	.	.
64DD-X	.	.
64AA-	.	.
64DD-X	.	.
64AA-	.	.
64DD-X	.	.
64AA-	.	.
64DD-X	.	.
64AA-	.	.
64DD-X	.	.
64AA-	.	.
64DD-X	(4cc 4ee-	mp [[
64AA-	.	.
64DD-X	.	.
64AA-	.	.
64DD-X	.	.
64AA-	.	.
64DD-X	.	.
64AA-	.	.
64DD-X	.	.
64AA-	.	.
64DD-X	.	.
64AA-	.	.
64DD-X	.	.
64AA-	.	.
64DD-X	.	.
64AA-JJJJ	.	.
=	=	=
!	!LO:TX:b:i:t=cresc.	!
64DD-XLLLL	4a-X 4cc	>
64AA-	.	.
64DD-X	.	.
64AA-	.	.
64DD-X	.	.
64AA-	.	.
64DD-X	.	.
64AA-	.	.
64DD-X	.	.
64AA-	.	.
64DD-X	.	.
64AA-	.	.
64DD-X	.	.
64AA-	.	.
64DD-X	.	.
64AA-	.	.
64DD-X	4f 4a-	]]
64AA-	.	.
64DD-X	.	.
64AA-	.	.
64DD-X	.	.
64AA-	.	.
64DD-X	.	.
64AA-	.	.
64DD-X	.	.
64AA-	.	.
64DD-X	.	.
64AA-	.	.
64DD-X	.	.
64AA-	.	.
64DD-X	.	.
64AA-JJJJ	.	.
=	=	=
64DD-XLLLL	4d-X) 4f	<
64AA-	.	.
64DD-X	.	.
64AA-	.	.
64DD-X	.	.
64AA-	.	.
64DD-X	.	.
64AA-	.	.
64DD-X	.	.
64AA-	.	.
64DD-X	.	.
64AA-	.	.
64DD-X	.	.
64AA-	.	.
64DD-X	.	.
64AA-	.	.
64DD-X	(4b- 4dd-X	mf
64AA-	.	.
64DD-X	.	.
64AA-	.	.
64DD-X	.	.
64AA-	.	.
64DD-X	.	.
64AA-	.	.
64DD-X	.	.
64AA-	.	.
64DD-X	.	.
64AA-	.	.
64DD-X	.	.
64AA-	.	.
64DD-X	.	.
64AA-JJJJ	.	.
=	=	=
64DD-XLLLL	4g-X 4b-	.
64AA-	.	.
64DD-X	.	.
64AA-	.	.
64DD-X	.	.
64AA-	.	.
64DD-X	.	.
64AA-	.	.
64DD-X	.	.
64AA-	.	.
64DD-X	.	.
64AA-	.	.
64DD-X	.	.
64AA-	.	.
64DD-X	.	.
64AA-	.	.
64DD-X	4e-) 4g-	[[
64AA-	.	.
64DD-X	.	.
64AA-	.	.
64DD-X	.	.
64AA-	.	.
64DD-X	.	.
64AA-	.	.
64DD-X	.	.
64AA-	.	.
64DD-X	.	.
64AA-	.	.
64DD-X	.	.
64AA-	.	.
64DD-X	.	.
64AA-JJJJ	.	.
*Xtremolo	*	*
=	=	=
4r	2Bn^^ 2f 2a- 2bn	f
4DD-X^^ 4D-X	.	.
=	=	=
4r	2c^^ 2f 2a- 2cc	.
4CC^^ 4C	.	.
=	=	=
*-	*-	*-
!!!system-decoration: {(s1,s2)}
